X:35
T:A BAGPIPE HORNPIPE
B:John of the Greeny Cheshire Way
N: John Offord, Reproduced with permission
M:9/4
L:1/8
K:A
P:1
a2||A3 c A2 c3 B A2 B3 c B2|A3 B A2 a3 g f2 e3 d c2|\
A3 B A2 c3 B A2 B3 c B2|a3 b f2 g3 f e2 a4 A2||
P:2
b2 B2 b2 g3 f e2 c3 B A2|G2 b2 G2 b2 c'2 a2 b4 B2|\
c2 d2 e2 f2 g2 a2 g3 f e2|c2 d2 B2 c3 B A2 a4 A2||
P:3
A,2 C2 A,2 C2 B,2 C2 E2 C2 A,2|A,2 C2 A,2 C2 E2 A2 G3 F E2|\
A,2 C2 A,2 C2 A,2 C2 D2 C2 E2 |G2 B2 A2 G3 F E2 A4 A,2||
P:4
a2 ABcA c2 ABcA c2 ABcA | a2 cAcA a2 fgaf b4 B2|\
a2 ABcA c2 ABcA c2 ABcA | a2 b2 f2 g3 f e2 a4 A2||
P:5
A,4 E2 A,4 E2 C3 B, A,2 | A,4 E2 A,4 A2 B4 B,2 |\
C4 E2 C4 A2 G3 F E2 | F2 G2 A2 B3 A G2 A4 A,2||
P:6
A2 e2 A2 e2 A2 e2 c2 A2 e2 | A2 e2 A2 e2 A2 e2 b2 B2 b2 |\
A2 e2 A2 e2 A2 e2 c2 A2 e2 | a2 b2 f2 g3 f e2 A4 a2|]
